public/img/att.svg

<svg width="86" height="28" viewBox="0 0 86 28" fill="none" xmlns="http://www.w3.org/2000/svg">
<path d="M53.4398 22.4108C53.7139 22.4108 53.9035 22.2232 53.9035 21.9498V8.43044H58.4583C58.7285 8.43044 58.9143 8.24093 58.9143 7.97059V6.10296C58.9143 5.83069 58.7285 5.6435 58.4583 5.6435H46.3255C46.0518 5.6435 45.8683 5.83069 45.8683 6.10296V7.97059C45.8683 8.24132 46.0518 8.43044 46.3255 8.43044H50.8826V21.9498C50.8826 22.2232 51.0688 22.4108 51.339 22.4108H53.4398ZM74.212 21.8253C74.4837 22.1177 74.316 22.4108 73.9843 22.4108H71.3419C70.9895 22.4108 70.7999 22.3288 70.5688 22.055L68.9889 20.2933C67.926 21.7205 66.4505 22.7891 63.9911 22.7891C60.9537 22.7891 58.5619 20.9446 58.5619 17.7783C58.5619 15.3499 59.8536 14.0484 61.8089 12.957C60.8485 11.8497 60.4113 10.6721 60.4113 9.64678C60.4113 7.04741 62.222 5.26525 64.95 5.26525C67.7383 5.26525 69.4449 6.9221 69.4449 9.37451C69.4449 11.4711 67.9475 12.6414 66.3656 13.5259L68.6983 16.0595L70.0096 13.7529C70.1746 13.4834 70.3619 13.3782 70.6936 13.3782H72.7134C73.0439 13.3782 73.2324 13.6075 73.027 13.963L70.6936 17.9891L74.212 21.8253ZM64.9926 7.8654C63.9098 7.8654 63.286 8.55614 63.286 9.47893C63.286 10.1921 63.6614 10.8202 64.5132 11.7407C65.9906 10.879 66.6175 10.3588 66.6175 9.436C66.6175 8.57548 66.0762 7.8654 64.9926 7.8654ZM64.0568 20.1495C65.388 20.1495 66.2812 19.4978 67.0124 18.3866L63.6418 14.7384C62.3502 15.474 61.5141 16.2077 61.5141 17.6731C61.5141 19.1199 62.6803 20.1495 64.0568 20.1495ZM47.8882 21.8682C47.9922 22.1378 47.826 22.4104 47.5358 22.4104H45.3693C45.0596 22.4104 44.8715 22.2646 44.7659 21.9695L43.5391 18.4071H36.8156L35.5888 21.9695C35.4836 22.2646 35.2986 22.4104 34.9854 22.4104H32.9463C32.6753 22.4104 32.4892 22.1374 32.5905 21.8682L38.2343 6.06042C38.3356 5.76726 38.5253 5.64311 38.835 5.64311H41.6245C41.9377 5.64311 42.1465 5.76764 42.2478 6.06042L47.8882 21.8682ZM42.5799 15.6624L40.1889 8.74255L37.7744 15.6624H42.5799ZM77.5008 22.4108C77.2306 22.4108 77.0444 22.2232 77.0444 21.9498V8.43044H72.4873C72.2132 8.43044 72.0275 8.24093 72.0275 7.97059V6.10296C72.0275 5.83069 72.2132 5.6435 72.4873 5.6435H84.6201C84.8915 5.6435 85.0761 5.83069 85.0761 6.10296V7.97059C85.0761 8.24132 84.8915 8.43044 84.6201 8.43044H80.0611V21.9498C80.0611 22.2232 79.8765 22.4108 79.6051 22.4108H77.5008Z" fill="#252122"/>
<path d="M21.0097 1.97534C18.9254 0.716845 16.5083 0.000964289 13.9016 0.000964289C11.2718 0.000964289 8.78291 0.742756 6.69131 2.03219C6.06524 2.42204 5.71248 2.73531 5.71248 3.13328C5.71248 4.31598 8.4528 5.5853 13.3078 5.5853C18.1197 5.5853 21.8488 4.19531 21.8488 2.85714C21.8488 2.53459 21.5713 2.31104 21.0097 1.97534ZM23.0783 3.53009C23.1374 3.62214 23.1662 3.72076 23.1662 3.85265C23.1662 5.40972 18.4429 8.16185 10.919 8.16185C5.39657 8.16185 4.36286 6.09388 4.36286 4.77892C4.36286 4.31288 4.53866 3.83215 4.93288 3.3429C4.95361 3.31312 4.93672 3.29959 4.91062 3.32318C4.1932 3.93734 3.53336 4.62809 2.95336 5.37104C2.67583 5.72221 2.50617 6.03432 2.50617 6.22228C2.50617 8.94348 9.28231 10.9194 15.617 10.9194C22.364 10.9194 25.3753 8.69712 25.3753 6.74788C25.3753 6.05134 25.1077 5.64409 24.4195 4.85472C23.9731 4.33879 23.5482 3.92188 23.1017 3.50998C23.0783 3.49451 23.0622 3.50843 23.0783 3.53009ZM1.34079 7.99516C0.933144 8.80928 0.479431 10.183 0.349305 10.8966C0.29096 11.1986 0.313607 11.3475 0.417631 11.5734C1.27247 13.3977 5.58274 16.3135 15.6462 16.3135C21.7798 16.3135 26.5495 14.7955 27.323 12.0244C27.4669 11.5111 27.473 10.9732 27.2907 10.2461C27.0884 9.4335 26.7034 8.4906 26.3798 7.82615C26.3699 7.80411 26.351 7.8072 26.351 7.83273C26.4743 11.4678 16.4074 13.8135 11.3305 13.8135C5.82956 13.8135 1.24291 11.6043 1.24291 8.81624C1.24291 8.54667 1.29588 8.28059 1.36766 8.00445C1.37419 7.97389 1.35077 7.97119 1.34079 7.99516ZM11.1052 19.6102C3.99014 19.6102 0.640265 16.274 0.0295566 13.996C0.0226473 13.9635 0 13.9697 0 13.9999C0 14.7688 0.075235 15.7554 0.209199 16.416C0.270999 16.7315 0.528948 17.2339 0.907042 17.6358C2.62939 19.4427 6.92622 21.9775 14.3645 21.9775C24.4944 21.9775 26.8136 18.5787 27.2838 17.4621C27.6262 16.6588 27.7993 15.2131 27.7993 13.9999C27.7993 13.704 27.7928 13.4704 27.7832 13.2407C27.7832 13.2005 27.7606 13.2005 27.7533 13.2368C27.2447 15.9716 18.5896 19.6102 11.1052 19.6102ZM14.8416 25.7735C18.2633 25.7735 22.0212 24.834 24.2698 22.973C24.8859 22.4675 25.4732 21.7903 25.9987 20.8861C26.2985 20.3639 26.5959 19.7451 26.8339 19.1379C26.8439 19.1089 26.8274 19.0915 26.8044 19.124C24.7166 22.2238 18.6613 24.1576 12.4103 24.1576C7.98988 24.1576 3.23664 22.7374 1.37649 20.0155C1.35768 19.9919 1.34079 20.0019 1.35077 20.0317C3.08617 23.743 8.34187 25.7735 14.8416 25.7735ZM5.377 25.0572C7.73193 26.8943 10.6914 28 13.902 28C17.4119 28 20.6128 26.6839 23.0553 24.5285C23.0852 24.5022 23.0726 24.4852 23.043 24.5022C21.9463 25.239 18.821 26.8494 13.902 26.8494C9.62393 26.8494 6.92008 25.8891 5.39657 25.0317C5.3674 25.0146 5.35397 25.0371 5.377 25.0572Z" fill="#3CA3D2"/>
</svg>

<svg width="86" height="28" fill="none" xmlns="http://www.w3.org/2000/svg"><path d="M53.44 22.41a.44.44 0 0 0 .464-.46V8.43h4.554c.27 0 .456-.19.456-.46V6.104c0-.272-.186-.46-.456-.46H46.325c-.273 0-.457.188-.457.46v1.868c0 .27.184.46.457.46h4.558V21.95c0 .273.186.46.456.46h2.1zm20.772-.585c.272.293.104.586-.228.586h-2.642c-.352 0-.542-.082-.773-.356l-1.58-1.762c-1.063 1.428-2.538 2.496-4.998 2.496-3.037 0-5.43-1.844-5.43-5.01 0-2.43 1.293-3.73 3.248-4.822-.96-1.107-1.398-2.285-1.398-3.31 0-2.6 1.811-4.382 4.539-4.382 2.788 0 4.495 1.657 4.495 4.11 0 2.096-1.497 3.266-3.08 4.15l2.333 2.534 1.312-2.306c.165-.27.352-.375.684-.375h2.02c.33 0 .518.23.313.585l-2.333 4.026 3.518 3.836zm-9.22-13.96c-1.082 0-1.706.691-1.706 1.614 0 .713.375 1.341 1.227 2.262 1.478-.862 2.105-1.382 2.105-2.305 0-.86-.542-1.57-1.625-1.57zm-.935 12.284c1.331 0 2.224-.651 2.955-1.762l-3.37-3.649c-1.292.736-2.128 1.47-2.128 2.935 0 1.447 1.166 2.477 2.543 2.477zm-16.169 1.72c.104.269-.062.541-.352.541h-2.167c-.31 0-.498-.145-.603-.44l-1.227-3.563h-6.723l-1.227 3.563c-.105.295-.29.44-.604.44h-2.039c-.27 0-.457-.273-.355-.542L38.233 6.06c.102-.293.291-.417.601-.417h2.79c.313 0 .522.125.623.417l5.64 15.808zm-5.308-6.207l-2.391-6.92-2.415 6.92h4.806zm34.92 6.749c-.27 0-.456-.188-.456-.461V8.43h-4.557a.438.438 0 0 1-.46-.46V6.104c0-.272.186-.46.46-.46H84.62c.271 0 .456.188.456.46v1.868c0 .27-.184.46-.456.46h-4.559V21.95c0 .273-.185.46-.456.46h-2.104z" fill="#252122"/><path d="M21.01 1.975A13.664 13.664 0 0 0 13.902.001c-2.63 0-5.12.742-7.21 2.031-.627.39-.98.703-.98 1.101 0 1.183 2.74 2.452 7.596 2.452 4.812 0 8.54-1.39 8.54-2.728 0-.322-.277-.546-.838-.882zm2.068 1.555c.06.092.088.19.088.323 0 1.557-4.723 4.309-12.247 4.309-5.522 0-6.556-2.068-6.556-3.383 0-.466.176-.947.57-1.436.02-.03.004-.043-.022-.02a14.238 14.238 0 0 0-1.958 2.048c-.277.351-.447.663-.447.851 0 2.721 6.776 4.697 13.111 4.697 6.747 0 9.758-2.222 9.758-4.171 0-.697-.267-1.104-.956-1.893a16.212 16.212 0 0 0-1.317-1.345c-.024-.015-.04-.002-.024.02zM1.341 7.995c-.408.814-.862 2.188-.992 2.902-.058.302-.035.45.069.676.854 1.825 5.165 4.74 15.228 4.74 6.134 0 10.903-1.517 11.677-4.289.144-.513.15-1.05-.032-1.778-.203-.813-.588-1.755-.911-2.42-.01-.022-.029-.019-.029.007.123 3.635-9.944 5.98-15.02 5.98-5.501 0-10.088-2.209-10.088-4.997 0-.27.053-.535.125-.812.006-.03-.017-.033-.027-.009zm9.764 11.615C3.99 19.61.64 16.274.03 13.996.023 13.963 0 13.97 0 14c0 .769.075 1.755.21 2.416.061.316.319.818.697 1.22 1.722 1.807 6.02 4.341 13.457 4.341 10.13 0 12.45-3.398 12.92-4.515.342-.803.515-2.249.515-3.462 0-.296-.006-.53-.016-.76 0-.04-.022-.04-.03-.003-.508 2.735-9.163 6.373-16.648 6.373zm3.737 6.163c3.421 0 7.18-.939 9.428-2.8.616-.505 1.203-1.183 1.729-2.087.3-.522.597-1.14.835-1.748.01-.03-.007-.047-.03-.014-2.087 3.1-8.143 5.034-14.394 5.034-4.42 0-9.173-1.42-11.034-4.143-.018-.023-.035-.013-.025.017 1.735 3.711 6.99 5.741 13.49 5.741zm-9.465-.716A13.824 13.824 0 0 0 13.902 28c3.51 0 6.71-1.316 9.153-3.471.03-.027.018-.044-.012-.027-1.097.737-4.222 2.347-9.141 2.347-4.278 0-6.982-.96-8.505-1.817-.03-.017-.043.005-.02.025z" fill="#3CA3D2"/></svg>
